X: 37
T: MAYDEN LANE
B: FIFTY OLD ENGLISH FOLK DANCE AIRS", Edgar H. Hunt ed., Schott & Co. Ltd. pub., London 1939
Z: 2004-2014 John Chambers <jc:trillian.mit.edu>
M: 2/2
L: 1/8
K: G
|:\
(d3c) (BA)G2 | (g2f2 g2)d2 |\
(g2f2 g2)(dc) | B2A2 G4 :|\
|:\
(AB)cd e2A2 | c2B2 A2e2 |
e2e2 e2(dc) | (BA)Bc A4 :|\
|: d2(Bc) d2(Bc) | (dc)BA B2G2 |\
d2(Bc) (de)dc | B2A2 G4 :|

%%sep 1 1 500
%%sep 1 1 500
